X:69
T:Thomas the Rhymer
T:set already in Vol 1st. of Ballads
Z:Jack Campin - http://www.campin.me.uk
S:Blaikie MS (NLS MS.1578) p21
N:Blaikie #64
M:3/4
L:1/8
V:1 midi program 1 74
V:2 midi program 1 46 bass middle = d transpose -24
Q:1/4=100
N:I have split the rest in the middle of the bass part
K:A Minor
[V:1] E|AB c2 B2 |AA E2 c2| dd    d2 c2|dd e3
[V:2] z|A2 a2 e2 |a2 A2 a2|^g2    g2 a2|f2 e2z
%
[V:1] A|cd e2 e2 |dc B3  G| A/B/c B2 AG|EG A3|]
[V:2] z|e2 c2 c'2|G2 g2 g2| a2    e2 z2|e2 A3|]
W:Transcription (c) Jack Campin 2009, no mirroring or republication without permission

